assets/icons/doc.svg

<svg width="25" height="25" viewBox="0 0 25 25" fill="none" xmlns="http://www.w3.org/2000/svg">
<g clip-path="url(#clip0_1_86)">
<mask id="mask0_1_86" style="mask-type:luminance" maskUnits="userSpaceOnUse" x="0" y="0" width="25" height="25">
<path d="M24.6667 0.666382H0.666656V24.6664H24.6667V0.666382Z" fill="white"/>
</mask>
<g mask="url(#mask0_1_86)">
<path d="M7.04166 12.0101C3.55233 12.0101 0.713531 14.849 0.713531 18.3383C0.713531 21.8276 3.55233 24.6664 7.04166 24.6664C10.531 24.6664 13.3698 21.8276 13.3698 18.3383C13.3698 14.849 10.531 12.0101 7.04166 12.0101ZM9.83571 17.5698L6.55444 20.8511C6.41719 20.9883 6.23724 21.057 6.05728 21.057C5.87733 21.057 5.69737 20.9883 5.56012 20.8511L4.15387 19.4448C3.87928 19.1702 3.87928 18.725 4.15387 18.4505C4.42842 18.1759 4.87364 18.1759 5.14824 18.4505L6.05728 19.3595L8.84136 16.5755C9.11593 16.3009 9.56113 16.3009 9.83571 16.5755C10.1103 16.85 10.1103 17.2952 9.83571 17.5698Z" fill="white"/>
<path d="M19.2292 6.76013C18.8409 6.76013 18.526 6.44532 18.526 6.05701V0.666382H8.44791C7.2848 0.666382 6.33853 1.61265 6.33853 2.77576V10.6362C6.57018 10.6152 6.80461 10.6039 7.04166 10.6039C9.43828 10.6039 11.5837 11.6996 13.0035 13.4164H20.6354C21.0237 13.4164 21.3385 13.7312 21.3385 14.1195C21.3385 14.5078 21.0237 14.8226 20.6354 14.8226H13.9298C14.3791 15.6992 14.6554 16.6541 14.7437 17.6351H20.6354C21.0237 17.6351 21.3385 17.95 21.3385 18.3383C21.3385 18.7265 21.0237 19.0414 20.6354 19.0414H14.7437C14.5335 21.3635 13.2928 23.3926 11.4835 24.6664H22.5104C23.6735 24.6664 24.6198 23.7201 24.6198 22.557V6.76013H19.2292ZM20.6354 10.6039H10.3229C9.93463 10.6039 9.61978 10.289 9.61978 9.90076C9.61978 9.51248 9.93463 9.19763 10.3229 9.19763H20.6354C21.0237 9.19763 21.3385 9.51248 21.3385 9.90076C21.3385 10.289 21.0237 10.6039 20.6354 10.6039Z" fill="white"/>
<path d="M19.9323 1.078V5.3538H24.2078L19.9323 1.078Z" fill="white"/>
</g>
</g>
<defs>
<clipPath id="clip0_1_86">
<rect width="24" height="24" fill="white" transform="translate(0.666656 0.666382)"/>
</clipPath>
</defs>
</svg>

<svg xmlns="http://www.w3.org/2000/svg" width="25" height="25" fill="none" viewBox="0 0 25 25"><g clip-path="url(#a)"><mask id="b" width="25" height="25" x="0" y="0" maskUnits="userSpaceOnUse" style="mask-type:luminance"><path fill="#fff" d="M24.667.666h-24v24h24z"/></mask><g fill="#fff" mask="url(#b)"><path d="M7.042 12.01a6.335 6.335 0 0 0-6.328 6.328 6.335 6.335 0 0 0 6.328 6.328 6.335 6.335 0 0 0 6.328-6.328 6.335 6.335 0 0 0-6.328-6.328m2.794 5.56-3.282 3.28a.7.7 0 0 1-.994 0l-1.406-1.406a.703.703 0 1 1 .994-.994l.91.909 2.783-2.784a.703.703 0 1 1 .995.994"/><path d="M19.23 6.76a.703.703 0 0 1-.704-.703V.667H8.448c-1.163 0-2.11.946-2.11 2.109v7.86q.348-.031.704-.032a7.72 7.72 0 0 1 5.962 2.812h7.631a.703.703 0 0 1 0 1.407H13.93c.45.876.725 1.831.814 2.812h5.891a.703.703 0 0 1 0 1.406h-5.891a7.74 7.74 0 0 1-3.26 5.625H22.51c1.163 0 2.11-.946 2.11-2.109V6.76zm1.405 3.844H10.323a.703.703 0 0 1 0-1.406h10.312a.703.703 0 0 1 0 1.406"/><path d="M19.932 1.078v4.276h4.276z"/></g></g><defs><clipPath id="a"><path fill="#fff" d="M.667.666h24v24h-24z"/></clipPath></defs></svg>
